X:1
T:Title
%%score { ( 1 4 ) | ( 2 3 ) }
L:1/8
M:6/8
K:F
V:1 treble nm="Grand Piano"
V:4 treble 
V:2 bass 
V:3 bass 
V:1
 z3 z2[Q:1/4=84] C | [CA]2 [CF] [EG]F[K:bass][F,B,D] | [F,B,D]2 [F,A,C] .[F,A,C]2[K:treble] [CA] | %3
 GA[CG] GA[F=B] |[M:5/8] [Ec]2 z z2 |[M:1/8] [Ec] |[M:3/4] [GB]2 [EG][EG] [FA][GB] | [GB]2 AF GA | %8
 [DA]2 [DG] D2 E |[M:5/8] F2 G [CA]2 |[M:1/8] z |[M:3/4] [Be]2 [Bd][EG] [FA][GB] | %12
 [Bd]2 [CAc]F [EG][CFA] | [DGc]2 [DGB] [G,B,D]2 [G,B,E] |[M:5/8] [F,A,F]2 z z2 |] %15
V:2
 z3 z2 [F,A,] | [F,,F,]2 [A,,F,] z DB,, | F,,2 F,, z F[F,,F,] | [G,,E,]2 [G,,E,] [G,,D,]2 [G,,G,] | %4
[M:5/8] [C,G,]2 z z2 |[M:1/8] [C,C] |[M:3/4] [E,C]2 [C,C] [C,C]2 [E,C] | %7
 [F,C]2 [F,CF]C- [G,CE][F,CF] | [B,,B,]2 [B,,B,] [C,G,B,]2 [C,G,B,] | %9
[M:5/8] [F,A,]2 [C,E,C] [F,,F,]2 |[M:1/8][K:treble] [Cc] | %11
[M:3/4][K:bass] [C,C]2 [C,C] [C,C]2 [E,C] | [F,C]2 F,A, G,F, | B,,2 B,, C,2 C, | %14
[M:5/8] F,,2 z z2 |] %15
V:3
 x6 | z3 .[B,,F,]3 | z3 .F,,3 | x6 |[M:5/8] x5 |[M:1/8] x |[M:3/4] x6 | z2 z A, z2 | x6 | %9
[M:5/8] x5 |[M:1/8][K:treble] x |[M:3/4][K:bass] x6 | x6 | x6 |[M:5/8] x5 |] %15
V:4
 x6 | x5[K:bass] x | x5[K:treble] x | .C3 .=B,3 |[M:5/8] x5 |[M:1/8] x |[M:3/4] x6 | x6 | x6 | %9
[M:5/8] x5 |[M:1/8] x |[M:3/4] x6 | z2 z .C3 | x6 |[M:5/8] x5 |] %15

